X: 8164
T: Coolata
R: jig
M: 6/8
K: Gmajor
D|GFG AFD|GFG Bcd|ege dBG|ABA AFD|
G3 AFD|GFG Bcd|ege dBG|AGF G2:|
|:d|g3 bge|d^cd ecA|B2 g gfg|a^ga afd|
g3 bge|d^cd ecA|d2 g dBG|AGF G2:|

